!! 00000] TT[00
!! NN
!!!OTL: Xiao mao diao
!!!ARE: Asia, China,ÿAnhui, Tuxian
!! Ethnic Group: Han
!! III, 590
!!!SCT: C0353
!!!YEM: Copyright 1995, estate of Helmut Schaffrath.
**kern
*ICvox
*Ivox
!! Mixed meters:  2/4; 1/4
*M1/4
*k[b-e-]
*B-:
{4ccc
4ccc
=1
4bb-
4ccc
=2
4fff
4ccc
=3
4fff
4ddd}
=4
{8ccc
8bb-
8ff
8gg
=5
2bb-
=6
8ccc
8bb-
8ff
8gg
=7
2bb-}
=8
{8ddd
8bb-
8ccc
8ddd
=9
2ccc
=10
8.bb-
16ccc
8bb-
8gg
=11
2ff}
=12
{8.bb-
16ccc
8bb-
8gg
=13
4ff
4bb-
=14
4bb-}
=15
*M2/4
{8bb-
8gg
8bb-
8ccc
=16
4ff
8ff
8gg
=17
8bb-
8gg
8bb-
8ccc
=18
2ff}
=19
{8bb-
8gg
8fff
8ddd
=20
4ccc
8ccc
8ddd
=21
4bb-
4ff
=22
4bb-
8ccc
8ddd
=23
8ccc
8bb-
8aa
8gg
=24
2ff}
==
!!!AGN: Xiaodiao. Biaoda aiqing
!! witzige Fuellwoerter, miauen von Katzen wird z.B. imitiert)
!!!ONB: ESAC (Essen Associative Code) Database: CHINA
!!!AMT: irregular
!!!AIN: vox
!!!EED: Helmut Schaffrath
!!!EEV: 1.0
*-
